X: 39
T:Denis Dooty's
M:2/2
L:1/8
R:Polka
Z:Robert Greenway
K:Em
G2E2 E2D2|B2E2 E3G|FGAF D3E|F2G2 ABBA|!
G2E2 E2D2|B2E2 E3F|G2A2 BcBA|1 G2F2 d3F:||2 G2F2 d4|!
||:B2e2 efed|B2e2 efed|B2d2 e2f2-|f2g2 e2f2-|!
f2g2 f2g2|e2B2 B2A2|B4 E3F|1 G2A2 B4:||2 G2A2 B3A||!

